X:146
T:Kater Tacawitha
T:(American Indian Saint)
C:A. Terreri
M:2/4
L:1/16
Q:1/4=110
K:D
%%staves (1 2 3 4)
V:1
%%MIDI channel 1
%%MIDI program 72
%%MIDI transpose 8
%%MIDI grace 1/8
%%MIDI ratio 3 1
|:!biga!BfBf BfBf|BfBf BfBf|([d=F][B3^F3]) [B2F2][B2F2]|([d=F][B3^F3]) [B2F2][B2F2]::\
"^Mountain Hornpipe"B2df Bfdf|A2ce Aece|
B2df Bfdf|ecAB cBB2::d2fd adfd|A2cA eAcA|B2df Bfdf|ecAB cBB2:|\
([d=F][B3^F3]) [B2F2][B2F2]|([d=F][B3^F3]) [B2F2][B2F2]||
V:2
%%MIDI channel 1
%%MIDI program 72
%%MIDI transpose 8
%%MIDI grace 1/8
%%MIDI ratio 3 1
L:1/4
|:x2|x2|x2|x2::x2|x2|x2|x2::x2|x2|x2|x2:|x2|x2|
V:3
%%MIDI channel 1
%%MIDI program 72
%%MIDI transpose 8
%%MIDI grace 1/8
%%MIDI ratio 3 1
L:1/4
|:x2|x2|x2|x2::x2|x2|x2|x2::x2|x2|x2|x2:|x2|x2|
V:4
%%MIDI channel 1
%%MIDI program 72
%%MIDI transpose 8
%%MIDI grace 1/8
%%MIDI ratio 3 1
L:1/4
|:x2|x2|x2|x2::x2|x2|x2|x2::x2|x2|x2|x2:|x2|x2|
%%staves [1 2 3 4]
V:1
L:1/8
!bigb!f>"^Interlude"f f/f/f|f2 f2|f>f f/f/f|f2 f2|e>e e/e/e|e2 e2|^a4-|^a4||:!bigc!ff|"^Theme"f>f|ff|f2:|
V:2
L:1/8
d>d d/d/d|d2 d2|d>d d/d/d|d2 d2|d>d d/d/d|d2 d2|c4-|c4||:dd|d>d|dd|c2:|
V:3
L:1/8
B>B B/B/B|B2 B2|B>B B/B/B|B2 B2|B>B B/B/B|B2 B2|E4-|E4||:BB|B<B|BB|F2:|
V:4
L:1/8
^G>G G/G/G|^G2 G2|A>A A/A/A|A2 A2|^G>G G/G/G|^G2 G2|F4-|F4||:"^Melody"!8(!FG|F<D|FG|A2:|
V:1
L:1/4
|:ff|f>f|f/ff/|f2::ff|f2|ff|f2|ff/z/|ff/z/|f/ff/|[1 f2:|[2 f z/B//c//||
V:2
L:1/4
|:dd|d<d|A/AA/|d2::BA|d2|BA-|A2|BA/z/|BA/z/|A/Ac/|[1 d2:|[2 d z/B//c//||
V:3
L:1/4
|:BB|B<B|F/FF/|F2::FF|F2|FF-|F2|FF/z/|FF/z/|F/FF/|[1 f2:|[2 F z/B//c//||
V:4
%%MIDI transpose -4
L:1/4
|:FG|F<D|c/cA/|B2::dc|B2|dc-|c2|dc/z/|dc/z/|c/cA/|[1 B2:|[2 B z/B//c//||
%%newpage
%%staves (1 2 3 4)
V:1
%%MIDI transpose 8
L:1/16
|:!bigd!d2f"^Pretty Girl Milking a Cow"e c2ed|BAF2 z2Bc|ddfe cced|B2F2 B2Bc|d2fe c2ed|BAF2 BAF2|"^(Bass drum)"z2 z2 fedc|
[1 BF2d B2Bc:|[2 BF2d B2A2|:defg a2fd|cBA2 z2A2|defg a2fa|B4-B2B2|
a2fd e4|a2fd e2|z2 z2 fedc|[1 BF2d B2A2:|[2 BF2d B4||"^Interlude"([d=F][B3^F3]) [B2F2][B2F2]|([d=F][B3^F3]) [B2F2][B2F2]||
|:!bige!B2d2 "^Dvorak"dcB2|ce2c e4|d2B2 (3(Bcd)d2|[1 cdcA B4:|[2 cdcA B2F2||B2d2 ddcB|c2Ac edcd|
B2FF BBd2|(3(cdc)Ac e2de|f2B2 dfed|c2Ac edcd|B2FF BBd2|(3(cdc)AA B4||
|:!bigf!fB2f B2de|f2af ede2|fB2f B2ed|cAce a4|fB2f B2de|f2af ede2|fB2f B2de|
fdec B4:|!bigg!([d=F][B3^F3]) [B2F2][B2F2]|([d=F][B3^F3]) [B2F2][B2F2]||!bigh!B2d2 "^Dvorak"dcB2|cez2 z4|d2B2 Bcd2|cAz2 z4|
B2d2 dcB2|cez2 z4|dcB2 z4|dcB2 z2Bc|d2fe c2ed|BAF2 BAF2|"^Bass""^Drum"z2 z2 fedc|.B .F2 .d .B2 z2||
